images_sukapura_svg/cmd/sc_sendmail.svg

<svg viewBox="0 0 16 16" xmlns="http://www.w3.org/2000/svg" xmlns:xlink="http://www.w3.org/1999/xlink"><linearGradient id="a" gradientUnits="userSpaceOnUse" x1="-30" x2="-30" y1="3" y2="-9"><stop offset="0" stop-color="#f5f5f5"/><stop offset=".3888889" stop-color="#fdfdfd"/><stop offset="1" stop-color="#fff"/></linearGradient>



     /&amp;gt;
 <path d="m1 2h14v12h-14z" fill="url(#a)"/><path d="m1 1c-.554 0-1 .446-1 1v12c0 .554.446 1 1 1h14c.554 0 1-.446 1-1v-12c0-.554-.446-1-1-1zm0 1h14v12h-14z" fill="#98989d"/><path d="m1 12 5-4-1-.5-4 3.5z" fill="#bcbcc0"/><path d="m15 12-5-4 1-.5 4 3.5z" fill="#bcbcc0"/><path d="m1 4.5v1l5.6 3.431641 1.4.568359 1.4-.568359 5.6-3.431641v-1l-5.6 3.431641-1.4.568359-1.4-.568359z" fill="#98989d"/><path d="m1.5 4v-1.5l13 .1284693v1.2037426.4327869l-5.1 3.1666422-1.4.568359-1.4-.568359-5.1-3.2192687z" fill="none" stroke="#fff" stroke-width=".83666"/></svg>

<?xml version="1.0" encoding="UTF-8" standalone="no"?>
<svg
   xmlns:dc="http://purl.org/dc/elements/1.1/"
   xmlns:cc="http://creativecommons.org/ns#"
   xmlns:rdf="http://www.w3.org/1999/02/22-rdf-syntax-ns#"
   xmlns:svg="http://www.w3.org/2000/svg"
   xmlns="http://www.w3.org/2000/svg"
   xmlns:xlink="http://www.w3.org/1999/xlink"
   xmlns:sodipodi="http://sodipodi.sourceforge.net/DTD/sodipodi-0.dtd"
   xmlns:inkscape="http://www.inkscape.org/namespaces/inkscape"
   viewBox="0 0 16 16"
   version="1.1"
   id="svg14"
   sodipodi:docname="sc_sendmail.svg"
   inkscape:version="0.92.3 (unknown)"
   inkscape:export-filename="/home/rizmut/Dokumen/Rizmut/Github/libreoffice-style-sukapura/images_sukapura/cmd/sc_sendmail.png"
   inkscape:export-xdpi="96"
   inkscape:export-ydpi="96"><metadata
   id="metadata20">
  <rdf:RDF>
    <cc:Work
       rdf:about="">
      <dc:format>image/svg+xml</dc:format>
      <dc:type
         rdf:resource="http://purl.org/dc/dcmitype/StillImage" />
      <dc:title></dc:title>
    </cc:Work>
  </rdf:RDF>
</metadata>
<defs
   id="defs18">
  <linearGradient
     gradientTransform="translate(-38,-11)"
     id="a"
     gradientUnits="userSpaceOnUse"
     x1="7"
     x2="7"
     y1="20"
     y2="3">
    <stop
       offset="0"
       stop-color="#f5f5f5"
       id="stop1016" />
    <stop
       offset=".3888889"
       stop-color="#fdfdfd"
       id="stop1018" />
    <stop
       offset="1"
       stop-color="#fff"
       id="stop1020" />
  </linearGradient>
  <linearGradient
     gradientTransform="translate(75,-7)"
     id="a-367"
     gradientUnits="userSpaceOnUse"
     x1="14"
     x2="13.79661"
     y1="22"
     y2="2.1355929">
    <stop
       offset="0"
       stop-color="#0040dd"
       id="stop2206" />
    <stop
       offset="1"
       stop-color="#0a84ff"
       id="stop2208" />
  </linearGradient>
  <linearGradient
     inkscape:collect="always"
     xlink:href="#a"
     id="linearGradient877"
     x1="8"
     y1="14"
     x2="8"
     y2="2"
     gradientUnits="userSpaceOnUse" />
</defs>
<sodipodi:namedview
   pagecolor="#ffffff"
   bordercolor="#666666"
   borderopacity="1"
   objecttolerance="10"
   gridtolerance="10"
   guidetolerance="10"
   inkscape:pageopacity="0"
   inkscape:pageshadow="2"
   inkscape:window-width="1366"
   inkscape:window-height="706"
   id="namedview16"
   showgrid="true"
   inkscape:zoom="14.75"
   inkscape:cx="-3.3782783"
   inkscape:cy="8.340553"
   inkscape:window-x="0"
   inkscape:window-y="0"
   inkscape:window-maximized="1"
   inkscape:current-layer="svg14">
  <inkscape:grid
     type="xygrid"
     id="grid879"
     spacingx="0.5"
     spacingy="0.5"
     empspacing="2" />
</sodipodi:namedview>



     /&gt;
 <path
   d="m1 2h14v12h-14z"
   fill="#fff"
   id="path2"
   style="fill-opacity:1;fill:url(#linearGradient877)" />
<path
   d="m1 1c-.554 0-1 .446-1 1v12c0 .554.446 1 1 1h14c .554 0 1-.446 1-1v-12c0-.554-.446-1-1-1zm0 1h14v12h-14z"
   fill="#808080"
   id="path12"
   style="fill:#98989d;fill-opacity:1" />
<path
   style="fill:#bcbcc0;fill-opacity:1;stroke:none;stroke-width:0.83666003px;stroke-linecap:butt;stroke-linejoin:miter;stroke-opacity:1"
   d="M 1,12 6,8 5,7.5 1,11 Z"
   id="path863"
   inkscape:connector-curvature="0"
   sodipodi:nodetypes="ccccc" />
<path
   inkscape:connector-curvature="0"
   id="path865"
   d="M 15,12 10,8 11,7.5 15,11 Z"
   style="fill:#bcbcc0;fill-opacity:1;stroke:none;stroke-width:0.83666003px;stroke-linecap:butt;stroke-linejoin:miter;stroke-opacity:1"
   sodipodi:nodetypes="ccccc" />
<path
   inkscape:connector-curvature="0"
   style="fill:#98989d;fill-opacity:1;stroke:none;stroke-width:0.83666003px;stroke-linecap:butt;stroke-linejoin:miter;stroke-opacity:1"
   d="m 1,4.5 v 1 L 6.6,8.931641 8,9.5 9.4,8.931641 15,5.5 v -1 L 9.4,7.931641 8,8.5 6.6,7.931641 Z"
   id="path850"
   sodipodi:nodetypes="ccccccccccc" />
<path
   sodipodi:nodetypes="cccccccccc"
   inkscape:connector-curvature="0"
   style="fill:none;fill-opacity:1;stroke:#ffffff;stroke-width:0.83666003px;stroke-linecap:butt;stroke-linejoin:miter;stroke-opacity:1"
   d="M 1.5,4 V 2.5 l 13,0.1284693 V 3.8322119 4.2649988 L 9.4,7.431641 8,8 6.6,7.431641 1.5,4.2123723 Z"
   id="path867" />
</svg>
